dist/img/socials/yandex_zen.svg

<svg width="40" height="40" viewBox="0 0 40 40" fill="none" xmlns="http://www.w3.org/2000/svg">
<path d="M23.8571 23.8571C20.7143 27.1 20.4857 31.1429 20.2143 40C28.4714 40 34.1714 39.9714 37.1143 37.1143C39.9714 34.1714 40 28.2 40 20.2143C31.1429 20.5 27.1 20.7143 23.8571 23.8571ZM0 20.2143C0 28.2 0.0285714 34.1714 2.88571 37.1143C5.82857 39.9714 11.5286 40 19.7857 40C19.5 31.1429 19.2857 27.1 16.1429 23.8571C12.9 20.7143 8.85714 20.4857 0 20.2143ZM19.7857 0C11.5429 0 5.82857 0.0285714 2.88571 2.88571C0.0285714 5.82857 0 11.8 0 19.7857C8.85714 19.5 12.9 19.2857 16.1429 16.1429C19.2857 12.9 19.5143 8.85714 19.7857 0ZM23.8571 16.1429C20.7143 12.9 20.4857 8.85714 20.2143 0C28.4714 0 34.1714 0.0285714 37.1143 2.88571C39.9714 5.82857 40 11.8 40 19.7857C31.1429 19.5 27.1 19.2857 23.8571 16.1429Z" fill="#383838"/>
<path d="M40 20.2143V19.7857C31.1429 19.5 27.1 19.2857 23.8571 16.1429C20.7143 12.9 20.4857 8.85714 20.2143 0H19.7857C19.5 8.85714 19.2857 12.9 16.1429 16.1429C12.9 19.2857 8.85714 19.5143 0 19.7857V20.2143C8.85714 20.5 12.9 20.7143 16.1429 23.8571C19.2857 27.1 19.5143 31.1429 19.7857 40H20.2143C20.5 31.1429 20.7143 27.1 23.8571 23.8571C27.1 20.7143 31.1429 20.4857 40 20.2143Z" fill="white"/>
</svg>

<svg xmlns="http://www.w3.org/2000/svg" width="40" height="40" fill="none"><path fill="#383838" d="M23.857 23.857C20.714 27.1 20.486 31.143 20.214 40c8.257 0 13.957-.029 16.9-2.886C39.971 34.171 40 28.2 40 20.214c-8.857.286-12.9.5-16.143 3.643ZM0 20.214c0 7.986.029 13.957 2.886 16.9C5.829 39.971 11.529 40 19.786 40c-.286-8.857-.5-12.9-3.643-16.143C12.9 20.714 8.857 20.486 0 20.214ZM19.786 0c-8.243 0-13.957.029-16.9 2.886C.029 5.829 0 11.8 0 19.786c8.857-.286 12.9-.5 16.143-3.643C19.286 12.9 19.514 8.857 19.786 0Zm4.071 16.143C20.714 12.9 20.486 8.857 20.214 0c8.257 0 13.957.029 16.9 2.886C39.971 5.829 40 11.8 40 19.786c-8.857-.286-12.9-.5-16.143-3.643Z"/><path fill="#fff" d="M40 20.214v-.428c-8.857-.286-12.9-.5-16.143-3.643C20.714 12.9 20.486 8.857 20.214 0h-.428c-.286 8.857-.5 12.9-3.643 16.143C12.9 19.286 8.857 19.514 0 19.786v.428c8.857.286 12.9.5 16.143 3.643C19.286 27.1 19.514 31.143 19.786 40h.428c.286-8.857.5-12.9 3.643-16.143C27.1 20.714 31.143 20.486 40 20.214Z"/></svg>
